img/creators-and-curators/exposure.svg

<svg xmlns="http://www.w3.org/2000/svg" width="740" height="506" viewBox="0 0 740 506"><path d="M369.955 502.58l-216.133-124.79v-249.592l216.133-124.778 216.223 124.778v249.592l-216.223 124.79zm-192.503-138.41l192.503 111.144 192.584-111.144v-222.314l-192.584-111.158-192.503 111.158v222.314zm192.479 57.333l-145.864-84.266v-168.488l145.864-84.251 145.991 84.251v168.541l-145.991 84.213zm-122.234-97.884l122.234 70.617 122.349-70.617v-141.236l-122.349-70.631-122.234 70.631v141.236zm122.208-133.605l-5.475.553c3.173 5.847 5.126 12.452 5.126 19.582 0 22.884-18.554 41.438-41.45 41.438-7.709 0-14.815-2.234-20.97-5.859l-.784 7.89c0 35.103 28.474 63.576 63.578 63.576 35.103 0 63.575-28.474 63.575-63.576-.023-35.131-28.472-63.604-63.6-63.604z"/></svg>

<?xml version="1.0" encoding="utf-8"?>
<!-- Generator: Adobe Illustrator 16.0.4, SVG Export Plug-In . SVG Version: 6.00 Build 0)  -->
<!DOCTYPE svg PUBLIC "-//W3C//DTD SVG 1.1//EN" "http://www.w3.org/Graphics/SVG/1.1/DTD/svg11.dtd">
<svg version="1.1" id="Layer_1" xmlns="http://www.w3.org/2000/svg" xmlns:xlink="http://www.w3.org/1999/xlink" x="0px" y="0px"
	 width="740px" height="506px" viewBox="0 0 740 506" enable-background="new 0 0 740 506" xml:space="preserve">
<g>
	<path d="M369.955,502.58L153.822,377.79V128.198L369.955,3.42l216.223,124.778V377.79L369.955,502.58z M177.452,364.17
		l192.503,111.144L562.539,364.17V141.856L369.955,30.698L177.452,141.856V364.17z M369.931,421.503l-145.864-84.266V168.749
		l145.864-84.251l145.991,84.251v168.541L369.931,421.503z M247.697,323.619l122.234,70.617l122.349-70.617V182.383l-122.349-70.631
		l-122.234,70.631V323.619z M369.905,190.014l-5.475,0.553c3.173,5.847,5.126,12.452,5.126,19.582
		c0,22.884-18.554,41.438-41.45,41.438c-7.709,0-14.815-2.234-20.97-5.859l-0.784,7.89c0,35.103,28.474,63.576,63.578,63.576
		c35.103,0,63.575-28.474,63.575-63.576C433.482,218.487,405.033,190.014,369.905,190.014z"/>
</g>
</svg>
